X: 34
M:C|
L:1/8
K:A
e | {/d}cA A/2A/2A {/c}d=GdB | {/d}cAAc {/c}dB=GB | {/d}cA A/2A/2A {/c}d=GdB | {/d}cAAB =GEEe |
{/d}cA A/2A/2A {/c}(d=G)dB | {/d}cAAc {/c}dB=GB | {/d}cA A/2A/2A {/c}(dB) B/2B/2B | {/d}[cf]A A/2A/2A {/F}=GEE |]


